src/assets/group.svg

<svg width="81" height="80" viewBox="0 0 81 80" fill="none" xmlns="http://www.w3.org/2000/svg">
<path d="M40.96 0C18.88 0 0.959961 17.92 0.959961 40C0.959961 62.08 18.88 80 40.96 80C63.04 80 80.96 62.08 80.96 40C80.96 17.92 63.04 0 40.96 0ZM55.4 25.36C59.68 25.36 63.12 28.8 63.12 33.08C63.12 37.36 59.68 40.8 55.4 40.8C51.12 40.8 47.68 37.36 47.68 33.08C47.64 28.8 51.12 25.36 55.4 25.36ZM31.4 19.04C36.6 19.04 40.84 23.28 40.84 28.48C40.84 33.68 36.6 37.92 31.4 37.92C26.2 37.92 21.96 33.68 21.96 28.48C21.96 23.24 26.16 19.04 31.4 19.04ZM31.4 55.56V70.56C21.8 67.56 14.2 60.16 10.84 50.72C15.04 46.24 25.52 43.96 31.4 43.96C33.52 43.96 36.2 44.28 39 44.84C32.44 48.32 31.4 52.92 31.4 55.56ZM40.96 72C39.88 72 38.84 71.96 37.8 71.84V55.56C37.8 49.88 49.56 47.04 55.4 47.04C59.68 47.04 67.08 48.6 70.76 51.64C66.08 63.52 54.52 72 40.96 72Z" fill="#000000"/>
</svg>

<svg xmlns="http://www.w3.org/2000/svg" fill="none" viewBox="0 0 81 80"><path fill="#000" d="M41 0a40 40 0 1 0 0 80 40 40 0 0 0 0-80m14.4 25.4a7.7 7.7 0 0 1 7.7 7.7 7.7 7.7 0 0 1-7.7 7.7 7.7 7.7 0 0 1-7.7-7.7c0-4.3 3.4-7.7 7.7-7.7m-24-6.4a9.5 9.5 0 0 1 0 19 9.5 9.5 0 0 1 0-19m0 36.6v15a32 32 0 0 1-20.6-19.9C15 46.2 25.5 44 31.4 44q3.3 0 7.6.8c-6.6 3.5-7.6 8.1-7.6 10.8M41 72q-1.7 0-3.2-.2V55.6c0-5.7 11.8-8.6 17.6-8.6 4.3 0 11.7 1.6 15.4 4.6A32 32 0 0 1 41 72"/></svg>
